src/assets/icon-esthetics.svg

<svg xmlns="http://www.w3.org/2000/svg" width="107" height="107" viewBox="0 0 107 107" fill="none"><g clip-path="url(#clip0_150_348)"><path d="M53.323 106.467C82.5903 106.467 106.316 82.7408 106.316 53.4735C106.316 24.2063 82.5903 0.480469 53.323 0.480469C24.0557 0.480469 0.329956 24.2063 0.329956 53.4735C0.329956 82.7408 24.0557 106.467 53.323 106.467Z" fill="#306B4D"></path><path fill-rule="evenodd" clip-rule="evenodd" d="M84.8324 24.5516C86.0767 24.5516 87.0853 25.5603 87.0853 26.8045C87.0853 32.68 91.8711 37.4573 97.7864 37.4573C99.0306 37.4573 100.039 38.4659 100.039 39.7102C100.039 40.9544 99.0306 41.963 97.7864 41.963C91.8725 41.963 87.0853 46.7453 87.0853 52.6223C87.0853 53.8665 86.0767 54.8751 84.8324 54.8751C83.5882 54.8751 82.5796 53.8665 82.5796 52.6223C82.5796 46.7438 77.7973 41.963 71.8849 41.963C70.6407 41.963 69.6321 40.9544 69.6321 39.7102C69.6321 38.4659 70.6407 37.4573 71.8849 37.4573C77.7988 37.4573 82.5796 32.6815 82.5796 26.8045C82.5796 25.5603 83.5882 24.5516 84.8324 24.5516ZM84.8333 34.7493C83.587 36.765 81.8807 38.4672 79.8609 39.711C81.8808 40.9558 83.5871 42.6592 84.8333 44.6758C86.0805 42.6591 87.788 40.9558 89.8087 39.711C87.788 38.4673 86.0806 36.7651 84.8333 34.7493Z" fill="white"></path><path d="M72.6408 56.7348C74.3408 54.1099 76.2647 50.17 77.0423 45.0012C77.2637 43.5279 76.246 42.1523 74.7727 41.9309C73.3102 41.7385 71.9263 42.7271 71.7023 44.1999C70.9409 49.2843 68.7743 52.9107 67.5513 54.6184C67.093 55.2614 66.9372 56.0731 67.1271 56.8403C67.9259 60.0581 68.5741 65.1186 67.1271 70.9375C65.7728 76.3881 63.1267 80.2096 61.1474 82.4554C60.9601 82.6658 60.7573 82.8081 60.5224 82.895C60.019 83.0797 59.6109 82.9008 59.3522 82.716C58.8411 82.3472 58.5514 81.6984 58.572 80.9794C58.7516 74.8066 57.4044 70.1206 54.5742 67.0606C53.6756 66.0854 51.285 63.4921 47.6901 63.4921C44.0926 63.4921 41.702 66.0854 40.806 67.058C37.9725 70.1206 36.626 74.8066 36.8055 80.9794C36.8261 81.6984 36.5365 82.3472 36.0254 82.716C35.7692 82.8976 35.3637 83.0771 34.8494 82.8924C34.6203 82.8081 34.4175 82.6658 34.2302 82.4554C32.5702 80.5758 31.1122 78.3307 30.0161 75.9665C29.3917 74.6167 27.7864 74.0213 26.4347 74.6515C25.0823 75.2758 24.4921 76.8811 25.119 78.2329C26.4501 81.1081 28.1552 83.7305 30.1873 86.029C30.9726 86.9173 31.9188 87.5681 32.9943 87.9607C35.0895 88.7331 37.3456 88.4164 39.1775 87.0962C41.1458 85.6782 42.2768 83.3327 42.2028 80.8211C42.1081 77.5821 42.4744 73.2019 44.7723 70.7192C45.3207 70.1258 46.4594 68.8899 47.6901 68.8899C48.9182 68.8899 50.0569 70.1258 50.6078 70.7218C52.9032 73.2019 53.2694 77.5821 53.1748 80.8211C53.1008 83.3327 54.2317 85.6782 56.2001 87.0962C57.3754 87.942 58.7226 88.3746 60.0905 88.3746C60.8545 88.3746 61.6269 88.2401 62.3781 87.9633C63.4588 87.5681 64.405 86.9173 65.1929 86.0265C67.5725 83.3301 70.7484 78.7471 72.3666 72.2396C73.9114 66.0275 73.4396 60.5486 72.6408 56.7348Z" fill="white"></path><path d="M18.0165 41.6222L18.0326 41.9647C18.209 45.5306 18.9994 48.9994 20.3833 52.2699C21.0366 53.8224 21.8277 55.319 22.7391 56.7293C22.0832 59.8627 21.6114 64.3169 22.4366 69.4328C22.6497 70.7582 23.796 71.7018 25.0982 71.7018C25.2404 71.7018 25.3853 71.6915 25.5307 71.6677C27.0009 71.4302 28.0025 70.0437 27.7656 68.5735C26.9745 63.6713 27.5944 59.4861 28.2503 56.84C28.4402 56.0785 28.287 55.272 27.8338 54.629C26.8535 53.2451 26.018 51.7453 25.3537 50.1696C24.2176 47.481 23.5695 44.6321 23.4118 41.4407C23.2219 36.6492 25.2404 32.3823 28.8167 30.0284C31.6662 28.1469 35.0397 27.8991 38.0599 29.3403C38.392 29.4986 38.7267 29.6673 39.0588 29.8469C39.9651 30.3341 40.8695 30.9006 41.7417 31.5281C45.3553 34.1292 50.0277 34.1241 53.6361 31.5281C54.5083 30.9006 55.412 30.3341 56.3138 29.8494C56.6537 29.6673 56.991 29.4961 57.3154 29.3403C59.874 28.118 62.6913 28.1044 65.2454 29.2907C68.3003 30.7139 70.5879 33.5892 71.5206 37.1841C71.8978 38.6285 73.368 39.4981 74.8124 39.1158C76.2542 38.7418 77.1186 37.2684 76.7447 35.824C75.4026 30.6663 72.0426 26.5023 67.5253 24.3988C63.4798 22.5122 59.0308 22.5386 54.9801 24.4754C54.5823 24.6679 54.1762 24.8706 53.7623 25.092C52.6474 25.6907 51.5461 26.3833 50.4841 27.1479C48.7654 28.3864 46.6227 28.3889 44.8937 27.1479C43.8317 26.3833 42.7297 25.6907 41.6097 25.0895C41.1991 24.8706 40.7955 24.6653 40.3867 24.4703C35.6216 22.1929 30.3165 22.5753 25.8468 25.5188C20.6781 28.9245 17.7532 34.957 18.0165 41.6222Z" fill="white"></path></g><defs><clipPath id="clip0_150_348"><rect width="105.98" height="105.98" fill="white" transform="translate(0.329956 0.480469)"></rect></clipPath></defs></svg>

<?xml version="1.0" encoding="UTF-8"?>
<svg id="Layer_1" xmlns="http://www.w3.org/2000/svg" version="1.1" xmlns:xlink="http://www.w3.org/1999/xlink" viewBox="0 0 107 107">
  <!-- Generator: Adobe Illustrator 29.8.3, SVG Export Plug-In . SVG Version: 2.1.1 Build 3)  -->
  <defs>
    <style>
      .st0, .st1 {
        fill: #fff;
      }

      .st1 {
        fill-rule: evenodd;
      }

      .st2 {
        fill: none;
      }

      .st3 {
        fill: #336799;
      }

      .st4 {
        clip-path: url(#clippath);
      }
    </style>
    <clipPath id="clippath">
      <rect class="st2" x=".33" y=".48" width="105.98" height="105.98"/>
    </clipPath>
  </defs>
  <g class="st4">
    <g>
      <path class="st3" d="M53.32,106.47c29.27,0,52.99-23.73,52.99-52.99S82.59.48,53.32.48.33,24.21.33,53.47s23.73,52.99,52.99,52.99Z"/>
      <path class="st1" d="M84.83,24.55c1.24,0,2.25,1.01,2.25,2.25,0,5.88,4.79,10.65,10.7,10.65,1.24,0,2.25,1.01,2.25,2.25s-1.01,2.25-2.25,2.25c-5.91,0-10.7,4.78-10.7,10.66,0,1.24-1.01,2.25-2.25,2.25s-2.25-1.01-2.25-2.25c0-5.88-4.78-10.66-10.69-10.66-1.24,0-2.25-1.01-2.25-2.25s1.01-2.25,2.25-2.25c5.91,0,10.69-4.78,10.69-10.65,0-1.24,1.01-2.25,2.25-2.25ZM84.83,34.75c-1.25,2.02-2.95,3.72-4.97,4.96,2.02,1.24,3.73,2.95,4.97,4.96,1.25-2.02,2.95-3.72,4.98-4.96-2.02-1.24-3.73-2.95-4.98-4.96Z"/>
      <path class="st0" d="M72.64,56.73c1.7-2.62,3.62-6.56,4.4-11.73.22-1.47-.8-2.85-2.27-3.07-1.46-.19-2.85.8-3.07,2.27-.76,5.08-2.93,8.71-4.15,10.42-.46.64-.61,1.45-.42,2.22.8,3.22,1.45,8.28,0,14.1-1.35,5.45-4,9.27-5.98,11.52-.19.21-.39.35-.62.44-.5.18-.91,0-1.17-.18-.51-.37-.8-1.02-.78-1.74.18-6.17-1.17-10.86-4-13.92-.9-.98-3.29-3.57-6.88-3.57s-5.99,2.59-6.88,3.57c-2.83,3.06-4.18,7.75-4,13.92.02.72-.27,1.37-.78,1.74-.26.18-.66.36-1.18.18-.23-.08-.43-.23-.62-.44-1.66-1.88-3.12-4.12-4.21-6.49-.62-1.35-2.23-1.95-3.58-1.32-1.35.62-1.94,2.23-1.32,3.58,1.33,2.88,3.04,5.5,5.07,7.8.79.89,1.73,1.54,2.81,1.93,2.1.77,4.35.46,6.18-.86,1.97-1.42,3.1-3.76,3.03-6.28-.09-3.24.27-7.62,2.57-10.1.55-.59,1.69-1.83,2.92-1.83s2.37,1.24,2.92,1.83c2.3,2.48,2.66,6.86,2.57,10.1-.07,2.51,1.06,4.86,3.03,6.28,1.18.85,2.52,1.28,3.89,1.28.76,0,1.54-.13,2.29-.41,1.08-.4,2.03-1.05,2.81-1.94,2.38-2.7,5.56-7.28,7.17-13.79,1.54-6.21,1.07-11.69.27-15.5Z"/>
      <path class="st0" d="M18.02,41.62l.02.34c.18,3.57.97,7.03,2.35,10.31.65,1.55,1.44,3.05,2.36,4.46-.66,3.13-1.13,7.59-.3,12.7.21,1.33,1.36,2.27,2.66,2.27.14,0,.29-.01.43-.03,1.47-.24,2.47-1.62,2.23-3.09-.79-4.9-.17-9.09.48-11.73.19-.76.04-1.57-.42-2.21-.98-1.38-1.82-2.88-2.48-4.46-1.14-2.69-1.78-5.54-1.94-8.73-.19-4.79,1.83-9.06,5.4-11.41,2.85-1.88,6.22-2.13,9.24-.69.33.16.67.33,1,.51.91.49,1.81,1.05,2.68,1.68,3.61,2.6,8.29,2.6,11.89,0,.87-.63,1.78-1.19,2.68-1.68.34-.18.68-.35,1-.51,2.56-1.22,5.38-1.24,7.93-.05,3.05,1.42,5.34,4.3,6.28,7.89.38,1.44,1.85,2.31,3.29,1.93,1.44-.37,2.31-1.85,1.93-3.29-1.34-5.16-4.7-9.32-9.22-11.43-4.05-1.89-8.49-1.86-12.55.08-.4.19-.8.4-1.22.62-1.11.6-2.22,1.29-3.28,2.06-1.72,1.24-3.86,1.24-5.59,0-1.06-.76-2.16-1.46-3.28-2.06-.41-.22-.81-.42-1.22-.62-4.77-2.28-10.07-1.9-14.54,1.05-5.17,3.41-8.09,9.44-7.83,16.1Z"/>
    </g>
  </g>
</svg>
